svg/black/storj.svg

<svg xmlns="http://www.w3.org/2000/svg" width="32" height="32" viewBox="0 0 32 32">
  <path fill-rule="evenodd" d="M16,32 C7.163444,32 0,24.836556 0,16 C0,7.163444 7.163444,0 16,0 C24.836556,0 32,7.163444 32,16 C32,24.836556 24.836556,32 16,32 Z M24.9774944,18.9713284 C24.9046095,18.9299781 24.8285285,18.8943022 24.7499522,18.8646292 L24.7499522,13.24697 C24.8389953,13.2178203 24.9280384,13.1693106 25.0170816,13.1305909 C25.9366707,12.6260246 26.2731057,11.4811529 25.7589208,10.5786094 C25.244736,9.676066 24.0773064,9.3466184 23.1571566,9.85096473 C23.0779822,9.88979445 23.0087887,9.9383041 22.9395953,9.98681374 L17.8948642,7.12463455 C17.9047329,7.03729519 17.9146017,6.95963575 17.9146017,6.87240639 C17.9144895,5.83434393 17.0543373,5 16.0057815,5 C14.9572256,5 14.0768873,5.85381379 14.0768873,6.88219632 C14.0768873,6.96953568 14.0867561,7.04719512 14.0966248,7.13442448 L9.09148089,9.97724381 C8.54965188,9.56087963 7.82149261,9.46227496 7.18491653,9.71906383 C6.54834045,9.97585271 6.1015862,10.5484066 6.01516458,11.2182012 C5.92874296,11.8879959 6.21599085,12.5516663 6.76727557,12.9559122 C6.83646904,13.0044218 6.90577465,13.0529315 6.98483689,13.1014411 C7.06563002,13.1499426 7.15193341,13.1890014 7.24198539,13.2178203 L7.24198539,18.8257995 C6.26262302,19.2138767 5.78768891,20.3008888 6.1833365,21.2610718 C6.5789841,22.2212548 7.68686465,22.6873214 8.66622702,22.2992442 C8.75527016,22.2700944 8.83444453,22.2215848 8.91350676,22.1828651 C8.99268114,22.1343554 9.07174337,22.0858458 9.15091775,22.0276562 L14.1066057,24.8316458 C13.9383882,25.8503484 14.6506212,26.8108614 15.6893083,26.9758602 C16.7279953,27.140859 17.7072456,26.4422541 17.8753509,25.4234415 C17.8950885,25.3167423 17.8950885,25.219723 17.8950885,25.1129138 C17.8937913,25.0220529 17.8872014,24.931339 17.8753509,24.8412157 L22.8014326,22.056696 C22.880607,22.1148856 22.9596692,22.1730751 23.0487124,22.2216948 C23.9683015,22.7262611 25.1358431,22.4060535 25.6504766,21.50373 C26.1446997,20.6012966 25.847964,19.4952546 24.9774944,18.9713284 Z M25.323686,21.3192614 C24.9181697,21.9983964 24.0179817,22.2312647 23.3255984,21.8335076 C22.7717142,21.5132999 22.494716,20.8826745 22.6430839,20.271519 L20.3284109,18.9422886 C19.5980215,19.6687801 18.4944321,19.8942773 17.5290471,19.5142845 C17.1828555,19.6209837 16.4412405,19.6889632 16.4412405,19.6889632 L16.4412405,23.6863341 C17.2523854,23.9288824 17.6972647,24.7730162 17.4505456,25.5685305 C17.2038266,26.3640447 16.3426651,26.8005215 15.5315202,26.5585233 C15.5216515,26.5585233 15.5117827,26.5488433 15.5018018,26.5488433 C15.4326083,26.5294835 15.3731715,26.5003337 15.3138468,26.4711839 C14.5521579,26.1024666 14.2554222,25.1904632 14.6313322,24.4531386 C14.8192873,24.0844212 15.1556102,23.8128332 15.5509213,23.6866641 L15.5509213,19.6116338 C15.2604057,19.5235564 14.9761984,19.4165835 14.7001893,19.2914261 C13.8054445,19.4668016 12.877527,19.2428081 12.1679549,18.6801605 L9.4081784,20.2421492 C9.59649,21.0161629 9.10951878,21.7933795 8.32043572,21.9782101 C7.53135266,22.1630406 6.73889763,21.6855099 6.55033694,20.9115546 C6.36177625,20.1375992 6.84849731,19.3602318 7.63752084,19.1751569 C8.11234281,19.0587778 8.61677107,19.1945168 8.98326096,19.5244044 L11.5649512,18.0593251 C10.6944817,16.8562638 10.8329808,15.2068258 11.9013863,14.1589734 L8.963187,12.5095354 C8.38003295,13.0528215 7.45965886,13.0237817 6.90577465,12.4416659 C6.63959406,12.1643361 6.49721195,11.7943049 6.51020141,11.4136264 C6.52319086,11.0329479 6.69047836,10.6730827 6.97496813,10.4138306 C7.56843952,9.87054459 8.47849627,9.89958438 9.03238047,10.4817001 C9.3688155,10.8309476 9.49733368,11.3160441 9.38844088,11.7817807 L12.6427769,13.6154674 C13.0691421,13.3905006 13.5436472,13.2674826 14.0276556,13.25643 C14.4828522,12.8879327 15.6491603,12.5095354 15.6491603,12.5095354 L15.6491603,8.14355714 C14.9270586,7.9301587 14.5215423,7.18304413 14.7391036,6.47475928 C14.9566649,5.76647443 15.7189145,5.37839725 16.4410163,5.5917957 C17.163118,5.80519415 17.5686343,6.55230871 17.351073,7.26059356 C17.2204196,7.68952931 16.8783195,8.02508364 16.4410163,8.15323707 L16.4410163,12.432206 C16.4410163,12.432206 18.577603,12.9561322 19.2502487,13.7419664 L22.7122773,11.8112605 C22.5341911,11.0351061 23.0188818,10.2588418 23.8102891,10.084273 C24.6016965,9.9097043 25.3929917,10.3850108 25.5709658,11.1612752 C25.7489399,11.9375396 25.2643613,12.7136939 24.472954,12.8882626 C23.9946373,12.9939516 23.4940557,12.8593668 23.1375312,12.5292253 L19.7150898,14.4306714 C19.8140017,14.63439 19.9030448,14.8376685 19.9623696,15.0516169 C21.0207942,15.7599018 21.3967042,17.1181719 20.8328391,18.2533636 L23.0981683,19.5437643 C23.5669223,19.1152109 24.2672496,19.0401937 24.8192578,19.3594056 C25.5017723,19.7571627 25.7388469,20.6304464 25.3239103,21.3192614 L25.323686,21.3192614 Z M7.98371249,19.9609912 C7.64498462,19.9609912 7.37039143,20.2303303 7.37039143,20.5625769 C7.37039143,20.8948234 7.64498462,21.1641625 7.98371249,21.1641625 C8.32244036,21.1641625 8.59703355,20.8948234 8.59703355,20.5625769 C8.59703355,20.4558776 8.56731512,20.3588583 8.51785917,20.261839 C8.40631452,20.0762372 8.20336346,19.9619708 7.98371249,19.9611012 L7.98371249,19.9609912 Z M16.6487088,6.87251639 C16.6487088,6.54026982 16.3741156,6.27093076 16.0353878,6.27093076 C15.6966599,6.27093076 15.4220667,6.54026982 15.4220667,6.87251639 C15.4220667,7.20476295 15.6966599,7.47410201 16.0353878,7.47410201 C16.3733257,7.47223892 16.6468094,7.20398817 16.6487088,6.87251639 Z M24.1273231,12.0924184 C24.4660509,12.0924184 24.7406441,11.8230794 24.7406441,11.4908328 C24.7406441,11.1585862 24.4660509,10.8892472 24.1273231,10.8892472 C23.7885952,10.8892472 23.514002,11.1585862 23.514002,11.4908328 C23.5143964,11.5929214 23.5416688,11.6931791 23.5931764,11.7818907 C23.7004594,11.9729237 23.9049707,12.0918169 24.1273231,12.0924184 Z M8.2700187,10.9377568 C7.973283,10.772758 7.60724169,10.8698873 7.43913632,11.1609452 C7.27103095,11.4520031 7.36994285,11.8110405 7.66667855,11.9759293 C7.96341424,12.1408181 8.32945555,12.0437988 8.49756092,11.7527409 C8.66577844,11.471363 8.56675439,11.1026456 8.2700187,10.9377568 Z M24.3740421,20.0773704 C24.284999,20.0191808 24.1762183,19.9997109 24.0674376,19.990031 C23.8463628,19.9870986 23.6407899,20.101104 23.5293804,20.2884236 C23.417971,20.4757431 23.417971,20.7073802 23.5293804,20.8946997 C23.6407899,21.0820193 23.8463628,21.1960247 24.0674376,21.1930923 C24.284999,21.1930923 24.4823742,21.0767131 24.6015843,20.8923545 C24.7698018,20.6109765 24.6707778,20.2422592 24.3740421,20.0773704 Z M15.4220667,25.0933339 C15.3923483,25.3650319 15.5605658,25.62694 15.8177143,25.7239593 C15.877039,25.7433192 15.9463446,25.762789 16.0056693,25.762789 C16.3150486,25.7622931 16.5805819,25.546595 16.6387279,25.2485428 C16.6845388,24.9233565 16.4546535,24.6226985 16.1235592,24.5747739 C15.7924649,24.5268492 15.4838395,24.7495597 15.4319355,25.0738641 C15.4265762,25.0790853 15.4231096,25.0858858 15.4220667,25.0932239 L15.4220667,25.0933339 Z M18.9436443,15.8084114 C18.9337755,15.730752 18.9239068,15.6628825 18.9139259,15.585223 C18.9042449,15.5326848 18.8910201,15.4808346 18.8743387,15.4300142 C18.8743387,15.4106543 18.8644699,15.3911845 18.8644699,15.3718246 C18.8447324,15.313635 18.8248827,15.2456555 18.8051452,15.1874659 L18.8051452,15.177786 C18.6793676,14.8523001 18.4875394,14.5552444 18.2412801,14.3046124 C18.1819554,14.2464228 18.1324994,14.1979131 18.0631938,14.1396136 L18.0533251,14.1299336 C17.9940003,14.081424 17.9346756,14.0329143 17.86537,13.9940846 L17.8555013,13.9844047 C17.7961766,13.945575 17.7268709,13.8970653 17.6675462,13.8680255 L17.6576775,13.8583456 C17.5937742,13.8221535 17.5277142,13.7897555 17.4598537,13.7613263 L17.4401161,13.7516464 C17.3709227,13.7224966 17.3016171,13.6934568 17.2225548,13.664307 L17.2126861,13.6546271 C17.1335117,13.6352672 17.0643182,13.6061174 16.9851438,13.5964375 L16.9752751,13.5964375 C16.8970137,13.5787856 16.8177304,13.5658185 16.7378641,13.5576078 L16.7279953,13.5576078 C16.3067032,13.4988969 15.8770836,13.5490599 15.4816157,13.7031367 L15.4321597,13.7419664 C15.372835,13.7613263 15.2739231,13.8098359 15.2145984,13.8389857 C15.1837267,13.8589815 15.1505182,13.875268 15.1156865,13.8874954 C15.0859681,13.8971753 15.0365122,13.936005 15.0069059,13.9553649 C14.9772996,13.9747247 14.907994,14.0232344 14.8684068,14.0523842 L14.8386884,14.071744 C14.7793636,14.1105738 14.7299077,14.1590834 14.6704708,14.2075931 L14.6210149,14.2561027 C14.5616902,14.3142923 14.5122342,14.3628019 14.4627783,14.4211015 C14.3451144,14.4017682 14.2260212,14.3920183 14.1067179,14.3919517 C14.0671307,14.3919517 14.0375244,14.3919517 14.007806,14.4016316 C13.5528337,14.4209915 13.1175989,14.6053502 12.781276,14.906198 C12.6130585,15.0517269 12.4746715,15.2361956 12.3663395,15.4301242 L12.3557978,15.449924 C12.3253068,15.5062781 12.2988514,15.5646454 12.2766235,15.6246028 C12.2667547,15.6439626 12.2667547,15.6537525 12.2568859,15.6731124 C12.2359257,15.7233733 12.2193803,15.7752983 12.20743,15.8283213 C12.1975612,15.8476811 12.1975612,15.8768309 12.1876925,15.8961908 C12.1778237,15.9447004 12.1679549,15.9932101 12.157974,16.0513997 C12.157974,16.0707595 12.1481053,16.0902294 12.1481053,16.1192692 C12.1398812,16.1933764 12.1365847,16.2679302 12.1382365,16.3424575 C12.1365884,16.4040692 12.1398882,16.4657126 12.1481053,16.5268162 C12.1481053,16.5461761 12.157974,16.5656459 12.157974,16.5946857 C12.1678428,16.6335154 12.1678428,16.6723451 12.1777116,16.7110649 C12.1875803,16.7497846 12.1875803,16.7595745 12.1974491,16.7887243 C12.2087035,16.8166281 12.2153657,16.8461088 12.2171866,16.8760637 C12.2171866,16.9052134 12.2369241,16.9342532 12.246905,16.963403 C12.2549924,16.9867514 12.2649288,17.0094438 12.2766235,17.0312725 C12.2915229,17.0629182 12.3047364,17.0953016 12.3162107,17.1282918 C12.3260794,17.1476517 12.3359482,17.1574416 12.3359482,17.1768015 C12.4749583,17.4963691 12.7095925,17.7670192 13.0088182,17.9529558 C13.1571861,18.0402952 13.3055539,18.1179546 13.4637905,18.1663543 C13.5251395,18.1870399 13.587962,18.2032538 13.6517456,18.2148639 L13.6714831,18.2245439 L13.8495694,18.2536936 L13.8891566,18.2633736 C13.95835,18.2730535 14.0276556,18.2730535 14.1067179,18.2730535 C14.3738473,18.2730535 14.6309958,18.2245439 14.8684068,18.1178446 C14.9277315,18.1566743 14.9771874,18.1955041 15.0366243,18.2342238 L15.0563618,18.2439037 C15.1058178,18.2730535 15.1651425,18.3020933 15.2245793,18.3312431 L15.2342238,18.3312431 C15.7995949,18.6138555 16.4520706,18.6795881 17.0642061,18.5156017 L17.0740748,18.5156017 C17.1630654,18.4967568 17.2494076,18.4674311 17.3312233,18.4282624 L17.5983528,18.3118832 C17.8526948,18.5065154 18.1659705,18.6123491 18.4885598,18.612621 C18.5577533,18.612621 18.6171902,18.6029411 18.6863836,18.6029411 L18.7358396,18.5932612 C18.7992244,18.5840048 18.8619882,18.5710384 18.9237946,18.5544315 C18.984749,18.5360542 19.0442668,18.5133717 19.1018809,18.4865619 L19.1315993,18.476882 C19.190924,18.4477322 19.24038,18.4186924 19.2998168,18.3895427 C19.5470966,18.2343338 19.7350516,18.0014655 19.8438323,17.7394474 C19.8834195,17.652108 19.903157,17.5647686 19.9230067,17.4775393 L19.9230067,17.4483895 C19.9328754,17.4095598 19.9328754,17.3707301 19.9427442,17.3320103 C19.9427442,17.2835007 19.9526129,17.234991 19.9526129,17.1864814 C19.9526129,16.5461761 19.5470966,15.9931001 18.9433079,15.8087414 L18.9436443,15.8084114 Z"/>
</svg>

<svg xmlns="http://www.w3.org/2000/svg" width="32" height="32"><path fill-rule="evenodd" d="M16 32C7.163 32 0 24.837 0 16S7.163 0 16 0s16 7.163 16 16-7.163 16-16 16zm8.977-13.029a1.623 1.623 0 0 0-.227-.106v-5.618c.089-.03.178-.078.267-.116.92-.505 1.256-1.65.742-2.552a1.936 1.936 0 0 0-2.82-.592l-5.044-2.862c.01-.088.02-.165.02-.253 0-1.038-.86-1.872-1.91-1.872-1.048 0-1.928.854-1.928 1.882 0 .088.01.165.02.252L9.09 9.977a1.943 1.943 0 0 0-1.906-.258 1.881 1.881 0 0 0-1.17 1.5c-.086.669.201 1.333.752 1.737.07.048.139.097.218.145.08.049.167.088.257.117v5.608c-.98.388-1.454 1.475-1.059 2.435A1.919 1.919 0 0 0 8.666 22.3c.09-.029.168-.077.248-.116a3.31 3.31 0 0 0 .237-.155l4.956 2.804c-.169 1.018.544 1.979 1.582 2.144 1.039.165 2.018-.534 2.186-1.553.02-.106.02-.203.02-.31a2.34 2.34 0 0 0-.02-.272l4.926-2.784c.08.058.159.116.248.165.92.504 2.087.184 2.601-.718a1.882 1.882 0 0 0-.673-2.533zm.347 2.348a1.482 1.482 0 0 1-1.998.515c-.554-.32-.831-.951-.683-1.562l-2.315-1.33a2.618 2.618 0 0 1-2.799.572c-.346.107-1.088.175-1.088.175v3.997a1.498 1.498 0 0 1 1.01 1.883c-.247.795-1.108 1.232-1.92.99-.01 0-.02-.01-.03-.01a1.078 1.078 0 0 1-.187-.078 1.49 1.49 0 0 1-.683-2.018c.188-.369.525-.64.92-.766v-4.075a6.925 6.925 0 0 1-.85-.32 3.116 3.116 0 0 1-2.533-.612l-2.76 1.562a1.44 1.44 0 0 1-1.088 1.736c-.789.185-1.581-.292-1.77-1.066a1.44 1.44 0 0 1 1.088-1.737c.474-.116.979.02 1.345.35l2.582-1.466a2.991 2.991 0 0 1 .336-3.9l-2.938-1.65a1.466 1.466 0 0 1-2.057-.067 1.415 1.415 0 0 1 .069-2.028 1.465 1.465 0 0 1 2.057.068c.337.349.465.834.356 1.3l3.255 1.833c.426-.224.9-.348 1.385-.359.455-.368 1.621-.746 1.621-.746V8.144a1.333 1.333 0 0 1-.91-1.67c.218-.708.98-1.096 1.702-.882.722.213 1.128.96.91 1.669-.13.429-.473.764-.91.892v4.28s2.137.523 2.81 1.309l3.461-1.93a1.438 1.438 0 0 1 1.098-1.728c.792-.174 1.583.301 1.761 1.077a1.438 1.438 0 0 1-1.098 1.727 1.493 1.493 0 0 1-1.335-.359l-3.423 1.902c.099.203.188.407.247.62 1.059.709 1.435 2.067.87 3.202l2.266 1.29a1.468 1.468 0 0 1 1.721-.184c.683.398.92 1.271.505 1.96zm-17.34-1.358a.608.608 0 0 0-.614.602c0 .332.275.601.614.601.338 0 .613-.27.613-.601a.65.65 0 0 0-.08-.301.625.625 0 0 0-.533-.3v-.001zm8.665-13.088a.608.608 0 0 0-.614-.602.608.608 0 0 0-.613.602c0 .332.275.601.613.601a.611.611 0 0 0 .614-.601zm7.478 5.22c.34 0 .614-.27.614-.602a.608.608 0 0 0-.614-.602.608.608 0 0 0-.613.602.614.614 0 0 0 .613.602zM8.27 10.937a.61.61 0 0 0-.83.223.586.586 0 0 0 .227.815.61.61 0 0 0 .83-.223.588.588 0 0 0-.227-.815zm16.104 9.14a.66.66 0 0 0-.307-.088.616.616 0 0 0-.538.298.592.592 0 0 0 0 .607.616.616 0 0 0 .538.298.639.639 0 0 0 .535-.3.588.588 0 0 0-.228-.816zm-8.952 5.015a.613.613 0 0 0 .584.67c.309 0 .575-.216.633-.514a.6.6 0 0 0-.515-.674.608.608 0 0 0-.692.499.034.034 0 0 0-.01.02zm3.522-9.285l-.03-.223a1.188 1.188 0 0 0-.04-.155c0-.02-.01-.039-.01-.058-.02-.058-.04-.126-.059-.185v-.01a2.566 2.566 0 0 0-.742-1.037l-.01-.01c-.059-.049-.118-.097-.188-.136l-.01-.01c-.059-.038-.128-.087-.187-.116l-.01-.01a1.859 1.859 0 0 0-.198-.097l-.02-.01a4.98 4.98 0 0 0-.217-.087l-.01-.01c-.08-.019-.149-.048-.228-.058h-.01a2.016 2.016 0 0 0-.237-.038h-.01a2.489 2.489 0 0 0-1.246.145l-.05.039c-.06.02-.158.068-.217.097a.466.466 0 0 1-.1.048c-.029.01-.078.049-.108.068l-.139.097-.03.02c-.059.039-.108.087-.168.136l-.049.048c-.06.058-.109.107-.158.165a2.204 2.204 0 0 0-.356-.029c-.04 0-.07 0-.1.01a1.977 1.977 0 0 0-1.64 1.028l-.011.02c-.03.056-.057.115-.08.175-.01.019-.01.029-.02.048a.94.94 0 0 0-.049.155c-.01.02-.01.049-.02.068l-.029.155c0 .02-.01.04-.01.068a1.685 1.685 0 0 0-.01.223c-.001.062.002.124.01.185 0 .02.01.039.01.068.01.039.01.077.02.116.01.039.01.049.02.078a.279.279 0 0 1 .02.087c0 .03.019.058.029.087a.468.468 0 0 0 .03.068.995.995 0 0 1 .04.097c.01.02.019.03.019.049.139.32.374.59.673.776.148.087.297.165.455.213.061.021.124.037.188.049l.02.01.178.029.04.01c.068.01.138.01.217.01.267 0 .524-.05.761-.156.06.039.11.078.169.116l.02.01c.049.03.108.058.168.087h.01a2.595 2.595 0 0 0 1.83.185h.01c.088-.02.174-.049.256-.088l.267-.116c.255.195.568.3.89.3.07 0 .13-.01.198-.01l.05-.009c.063-.009.126-.022.188-.039.06-.018.12-.04.178-.067l.03-.01c.059-.03.108-.058.168-.087.247-.156.435-.389.544-.65.04-.088.06-.175.079-.262v-.03c.01-.038.01-.077.02-.116 0-.048.01-.097.01-.146 0-.64-.406-1.193-1.01-1.377z"/></svg>
